X: 374
T: A Sup Of Good Whiskey
R: jig
M: 6/8
K: Gmajor
D|DGG GFG|A2FD2D|DFA ABc|BdB G2d|
Bcd dcB|e2c A2A|ABc cBA|BdB G2D|
DGG FAA|BGGc2A|Bcd cBA|G3 G2||

